X:79
T:21st Psalm New Version. WHG.078
R:hymn
S:W.H.Giles MS,Bampton,Oxfordshire,1839p77
O:England
H:donated by Mrs W.R.Kettlewell to VWML,Apr 1927.
A:Bampton, Oxfordshire
Z:PJHeadford – VMP 2009
M:C|
L:1/4
Q:1/2=90
K:D
d2|dd ff|ee e2|e2 fe|dc d2||\
d2|ff fe|dc (d/e/d/e/)|f2||
d2|ff fe|dc d/e/d/e/|a4|\
d2 ff|aa gf|(e4|g4)|fe dc|d2|]

